actions/24/debug-step-instruction.svg

<?xml version="1.0" encoding="UTF-8" standalone="no"?>
<svg
   width="24"
   height="24"
   version="1.1"
   id="svg9"
   sodipodi:docname="debug-step-instruction.svg"
   inkscape:version="1.1.2 (0a00cf5339, 2022-02-04)"
   xmlns:inkscape="http://www.inkscape.org/namespaces/inkscape"
   xmlns:sodipodi="http://sodipodi.sourceforge.net/DTD/sodipodi-0.dtd"
   xmlns="http://www.w3.org/2000/svg"
   xmlns:svg="http://www.w3.org/2000/svg">
  <sodipodi:namedview
     id="namedview11"
     pagecolor="#000000"
     bordercolor="#666666"
     borderopacity="1.0"
     inkscape:pageshadow="2"
     inkscape:pageopacity="0"
     inkscape:pagecheckerboard="0"
     showgrid="false"
     inkscape:zoom="28.416667"
     inkscape:cx="12"
     inkscape:cy="11.964809"
     inkscape:window-width="1837"
     inkscape:window-height="967"
     inkscape:window-x="0"
     inkscape:window-y="29"
     inkscape:window-maximized="1"
     inkscape:current-layer="g7" />
  <defs
     id="defs3">
    <style
       id="current-color-scheme"
       type="text/css">
   .ColorScheme-Text { color:#eeeeec; } .ColorScheme-Highlight { color:#367bf0; } .ColorScheme-NeutralText { color:#ffcc44; } .ColorScheme-PositiveText { color:#3db47e; } .ColorScheme-NegativeText { color:#dd4747; }
  </style>
  </defs>
  <g
     transform="matrix(1,0,0,1,4,4)"
     id="g7">
    <path
       style="fill:currentColor"
       class="ColorScheme-Text"
       d="M 3,1 C 1,1 1,3 1,3 V 15 H 15 V 3 C 15,1 13,1 13,1 h -2 v 4 h 2 l 0.004,8 H 3 V 5 H 5 V 1 Z M 6.6337647,1 6.3764746,1.564712 7.6484962,3.4727442 8.339411,3.4908834 v 0 L 9.633089,1.5503665 v 0 L 9.34437,1 Z M 6.4277,6 C 5.3622,6 4.9238,6.3523 4.9238,7.2539 4.9238,7.2539 4.8994,7.8413 4.8926,8 4.8464,8.3689 4.7172,8.6777 4.3145,8.6777 H 4 v 0.6446 h 0.3145 c 0.5885,0 0.6093,0.6442 0.6093,1.2007 -0.005,0.174 0.0136,0.369 0.0176,0.477 0.0833,0.712 0.5291,1 1.4863,1 V 11.408 C 5.9782,11.408 5.8292,11.29 5.7656,11 5.7319,10.884 5.7284,10.486 5.7148,10.295 5.7148,9.8795 5.5928,9.2602 4.9941,9.0039 5.4672,8.8013 5.6363,8.3756 5.6895,8 5.7134,7.8959 5.708,7.7777 5.7148,7.6973 5.7148,6.831 5.7175,6.5918 6.4277,6.5918 Z M 7.5,6 v 1 h 1 V 6 Z m 2.0723,0 v 0.5918 c 0.7107,0 0.7267,0.2391 0.7267,1.1055 0.007,0.0804 0.002,0.1986 0.025,0.3027 0.053,0.3756 0.224,0.8013 0.697,1.0039 -0.598,0.2564 -0.722,0.8756 -0.722,1.2911 -0.014,0.191 -0.017,0.589 -0.051,0.705 -0.063,0.29 -0.226,0.408 -0.6757,0.408 V 12 c 0.9577,0 1.4187,-0.288 1.5017,-1 0.004,-0.108 0.023,-0.303 0.018,-0.477 0,-0.5565 0.019,-1.2007 0.607,-1.2007 H 12 V 8.6777 H 11.699 C 11.296,8.6777 11.169,8.3689 11.123,8 11.116,7.8413 11.092,7.2539 11.092,7.2539 11.092,6.3522 10.638,6 9.5723,6 Z M 7.5,8 v 4 h 1 V 8 Z"
       id="path5"
       sodipodi:nodetypes="scccscccccccccscccccccccccccsccscccccccccccccccccccccccccccsccsccccccc" />
  </g>
</svg>

<svg xmlns="http://www.w3.org/2000/svg" width="24" height="24" version="1.1">
 <defs>
  <style id="current-color-scheme" type="text/css">
   .ColorScheme-Text { color:#eeeeec; } .ColorScheme-Highlight { color:#367bf0; } .ColorScheme-NeutralText { color:#ffcc44; } .ColorScheme-PositiveText { color:#3db47e; } .ColorScheme-NegativeText { color:#dd4747; }
  </style>
 </defs>
 <g transform="matrix(1,0,0,1,4,4)">
  <path style="fill:currentColor" class="ColorScheme-Text" d="M 3,1 C 1,1 1,3 1,3 V 15 H 15 V 3 C 15,1 13,1 13,1 H 11 V 5 H 13 L 13.004,13 H 3 V 5 H 5 V 1 Z M 6,1 8,4 10,1 Z M 6.4277,6 C 5.3622,6 4.9238,6.3523 4.9238,7.2539 4.9238,7.2539 4.8994,7.8413 4.8926,8 4.8464,8.3689 4.7172,8.6777 4.3145,8.6777 H 4 V 9.3223 H 4.3145 C 4.903,9.3223 4.9238,9.9665 4.9238,10.523 4.9188,10.697 4.9374,10.892 4.9414,11 5.0247,11.712 5.4705,12 6.4277,12 V 11.408 C 5.9782,11.408 5.8292,11.29 5.7656,11 5.7319,10.884 5.7284,10.486 5.7148,10.295 5.7148,9.8795 5.5928,9.2602 4.9941,9.0039 5.4672,8.8013 5.6363,8.3756 5.6895,8 5.7134,7.8959 5.708,7.7777 5.7148,7.6973 5.7148,6.831 5.7175,6.5918 6.4277,6.5918 Z M 7.5,6 V 7 H 8.5 V 6 Z M 9.5723,6 V 6.5918 C 10.283,6.5918 10.299,6.8309 10.299,7.6973 10.306,7.7777 10.301,7.8959 10.324,8 10.377,8.3756 10.548,8.8013 11.021,9.0039 10.423,9.2603 10.299,9.8795 10.299,10.295 10.285,10.486 10.282,10.884 10.248,11 10.185,11.29 10.022,11.408 9.5723,11.408 V 12 C 10.53,12 10.991,11.712 11.074,11 11.078,10.892 11.097,10.697 11.092,10.523 11.092,9.9665 11.111,9.3223 11.699,9.3223 H 12 V 8.6777 H 11.699 C 11.296,8.6777 11.169,8.3689 11.123,8 11.116,7.8413 11.092,7.2539 11.092,7.2539 11.092,6.3522 10.638,6 9.5723,6 Z M 7.5,8 V 12 H 8.5 V 8 Z"/>
 </g>
</svg>
